svgs/google_authenticator.svg

<svg width="192" height="192" viewBox="0 0 192 192" fill="none" xmlns="http://www.w3.org/2000/svg">
<path d="M170 96.0001H176C176 92.6864 173.314 90.0001 170 90.0001V96.0001ZM148.326 43.6742L152.569 47.9168C154.912 45.5737 154.912 41.7747 152.569 39.4316L148.326 43.6742ZM96 90.0001C92.6863 90.0001 90 92.6864 90 96.0001C90 99.3138 92.6863 102 96 102V90.0001ZM122.87 69.1301L118.627 73.3727C119.753 74.4979 121.279 75.1301 122.87 75.1301C124.461 75.1301 125.987 74.4979 127.113 73.3727L122.87 69.1301ZM164 96.0001C164 111.732 158.545 126.978 148.565 139.139L157.841 146.752C169.582 132.444 176 114.509 176 96.0001H164ZM148.565 139.139C138.584 151.3 124.696 159.624 109.266 162.694L111.607 174.463C129.76 170.852 146.099 161.059 157.841 146.752L148.565 139.139ZM109.266 162.694C93.8363 165.763 77.8196 163.387 63.945 155.971L58.2883 166.554C74.6113 175.279 93.4545 178.074 111.607 174.463L109.266 162.694ZM63.945 155.971C50.0705 148.555 39.1967 136.557 33.1762 122.023L22.0897 126.615C29.1725 143.714 41.9653 157.829 58.2883 166.554L63.945 155.971ZM33.1762 122.023C27.1558 107.488 26.3613 91.3155 30.9281 76.2608L19.4448 72.7773C14.0721 90.4888 15.0068 109.515 22.0897 126.615L33.1762 122.023ZM30.9281 76.2608C35.4949 61.206 45.1404 48.2005 58.2212 39.4602L51.5544 29.4826C36.1652 39.7653 24.8175 55.0659 19.4448 72.7773L30.9281 76.2608ZM58.2212 39.4602C71.302 30.7199 87.0088 26.7855 102.665 28.3276L103.841 16.3853C85.4221 14.5712 66.9436 19.1998 51.5544 29.4826L58.2212 39.4602ZM102.665 28.3276C118.322 29.8696 132.959 36.7925 144.083 47.9168L152.569 39.4316C139.481 26.3441 122.261 18.1995 103.841 16.3853L102.665 28.3276ZM170 90.0001H96V102H170V90.0001ZM128 96.0001C128 113.673 113.673 128 96 128V140C120.301 140 140 120.301 140 96.0001H128ZM96 128C78.3269 128 64 113.673 64 96.0001H52C52 120.301 71.6995 140 96 140V128ZM64 96.0001C64 78.327 78.3269 64.0001 96 64.0001V52.0001C71.6995 52.0001 52 71.6996 52 96.0001H64ZM96 64.0001C104.838 64.0001 112.83 67.5753 118.627 73.3727L127.113 64.8874C119.157 56.9316 108.149 52.0001 96 52.0001V64.0001ZM144.083 39.4316L118.627 64.8874L127.113 73.3727L152.569 47.9168L144.083 39.4316Z" fill="black"/>
<circle cx="96" cy="40" r="6" fill="black"/>
<circle cx="96" cy="152" r="6" fill="black"/>
<circle cx="56.402" cy="56.4021" r="6" transform="rotate(-45 56.402 56.4021)" fill="black"/>
<circle cx="40.0001" cy="96" r="6" transform="rotate(-90 40.0001 96)" fill="black"/>
<circle cx="135.598" cy="135.598" r="6" transform="rotate(-45 135.598 135.598)" fill="black"/>
<circle cx="56.402" cy="135.598" r="6" transform="rotate(-135 56.402 135.598)" fill="black"/>
</svg>

<svg width="192" height="192" viewBox="0 0 192 192" fill="none" xmlns="http://www.w3.org/2000/svg"><path d="M170 96h6a6 6 0 0 0-6-6v6Zm-21.674-52.326 4.243 4.243a6 6 0 0 0 0-8.485l-4.243 4.242ZM96 90a6 6 0 0 0 0 12V90Zm26.87-20.87-4.243 4.243a6.003 6.003 0 0 0 8.486 0l-4.243-4.243ZM164 96a68.003 68.003 0 0 1-15.435 43.139l9.276 7.613A80.005 80.005 0 0 0 176 96h-12Zm-15.435 43.139a68.008 68.008 0 0 1-39.299 23.555l2.341 11.769a80.003 80.003 0 0 0 46.234-27.711l-9.276-7.613Zm-39.299 23.555a68.002 68.002 0 0 1-45.321-6.723l-5.657 10.583a79.997 79.997 0 0 0 53.319 7.909l-2.341-11.769Zm-45.321-6.723a68.002 68.002 0 0 1-30.769-33.948l-11.086 4.592a80.002 80.002 0 0 0 36.198 39.939l5.657-10.583Zm-30.769-33.948a68.001 68.001 0 0 1-2.248-45.762l-11.483-3.484a80 80 0 0 0 2.645 53.838l11.086-4.592Zm-2.248-45.762a68 68 0 0 1 27.293-36.8l-6.667-9.978a80 80 0 0 0-32.11 43.294l11.484 3.484Zm27.293-36.8a68 68 0 0 1 44.444-11.133l1.176-11.943a80 80 0 0 0-52.287 13.098l6.667 9.977Zm44.444-11.133a67.997 67.997 0 0 1 41.418 19.589l8.486-8.485a80.002 80.002 0 0 0-48.728-23.047l-1.176 11.943ZM170 90H96v12h74V90Zm-42 6c0 17.673-14.327 32-32 32v12c24.301 0 44-19.699 44-44h-12Zm-32 32c-17.673 0-32-14.327-32-32H52c0 24.301 19.7 44 44 44v-12ZM64 96c0-17.673 14.327-32 32-32V52c-24.3 0-44 19.7-44 44h12Zm32-32c8.838 0 16.83 3.575 22.627 9.373l8.486-8.486C119.157 56.932 108.149 52 96 52v12Zm48.083-24.568-25.456 25.455 8.486 8.486 25.456-25.456-8.486-8.485Z" fill="#000"/><circle cx="96" cy="40" r="6" fill="#000"/><circle cx="96" cy="152" r="6" fill="#000"/><circle cx="56.402" cy="56.402" r="6" transform="rotate(-45 56.402 56.402)" fill="#000"/><circle cx="40" cy="96" r="6" transform="rotate(-90 40 96)" fill="#000"/><circle cx="135.598" cy="135.598" r="6" transform="rotate(-45 135.598 135.598)" fill="#000"/><circle cx="56.402" cy="135.598" r="6" transform="rotate(-135 56.402 135.598)" fill="#000"/></svg>
